luts/botw-vista-vlog.cube
TITLE "BotW Vista - VLog Input"
LUT_3D_SIZE 33
DOMAIN_MIN 0.0 0.0 0.0
DOMAIN_MAX 1.0 1.0 1.0
0.016118 0.024918 0.042518
0.016118 0.024918 0.042518
0.016118 0.024918 0.042518
0.016118 0.024918 0.042518
0.016118 0.024918 0.042518
0.159772 0.026663 0.042607
0.016118 0.024918 0.042518
0.016118 0.024918 0.042518
0.016118 0.024918 0.042518
0.016118 0.024918 0.042518
0.016118 0.024918 0.042518
0.016118 0.024918 0.042518
0.316390 0.028642 0.042835
0.464653 0.030592 0.043183
0.596764 0.032397 0.043608
0.726314 0.034226 0.044127
0.805681 0.034674 0.043289
0.837993 0.034878 0.042984
0.837993 0.034878 0.042984
0.837993 0.034878 0.042984
0.837993 0.034878 0.042984
0.837993 0.034878 0.042984
0.837993 0.034878 0.042984
0.837993 0.034878 0.042984
0.837993 0.034878 0.042984
0.837993 0.034878 0.042984
0.837993 0.034878 0.042984
0.837993 0.034878 0.042984
0.837993 0.034878 0.042984
0.837993 0.034878 0.042984
0.837993 0.034878 0.042984
0.837993 0.034878 0.042984
0.837993 0.034878 0.042984
0.016118 0.024918 0.042518
0.016118 0.024918 0.042518
0.016118 0.024918 0.042518
0.016118 0.024918 0.042518
0.016118 0.024918 0.042518
0.159772 0.026663 0.042607
0.016118 0.024918 0.042518
0.016118 0.024918 0.042518
0.016118 0.024918 0.042518
0.016118 0.024918 0.042518
0.016118 0.024918 0.042518
0.016118 0.024918 0.042518
0.316390 0.028642 0.042835
0.464653 0.030592 0.043183
0.596764 0.032397 0.043608
0.726314 0.034226 0.044127
0.805681 0.034674 0.043289
0.837993 0.034878 0.042984
0.837993 0.034878 0.042984
0.837993 0.034878 0.042984
0.837993 0.034878 0.042984
0.837993 0.034878 0.042984
0.837993 0.034878 0.042984
0.837993 0.034878 0.042984
0.837993 0.034878 0.042984
0.837993 0.034878 0.042984
0.837993 0.034878 0.042984
0.837993 0.034878 0.042984
0.837993 0.034878 0.042984
0.837993 0.034878 0.042984
0.837993 0.034878 0.042984
0.837993 0.034878 0.042984
0.837993 0.034878 0.042984
0.016118 0.024918 0.042518
0.016118 0.024918 0.042518
0.016118 0.024918 0.042518
0.016118 0.024918 0.042518
0.016118 0.024918 0.042518
0.159772 0.026663 0.042607
0.016118 0.024918 0.042518
0.016118 0.024918 0.042518
0.016118 0.024918 0.042518
0.016118 0.024918 0.042518
0.016118 0.024918 0.042518
0.016118 0.024918 0.042518
0.316390 0.028642 0.042835
0.464653 0.030592 0.043183
0.596764 0.032397 0.043608
0.726314 0.034226 0.044127
0.805681 0.034674 0.043289
0.837993 0.034878 0.042984
0.837993 0.034878 0.042984
0.837993 0.034878 0.042984
0.837993 0.034878 0.042984
0.837993 0.034878 0.042984
0.837993 0.034878 0.042984
0.837993 0.034878 0.042984
0.837993 0.034878 0.042984
0.837993 0.034878 0.042984
0.837993 0.034878 0.042984
0.837993 0.034878 0.042984
0.837993 0.034878 0.042984
0.837993 0.034878 0.042984
0.837993 0.034878 0.042984
0.837993 0.034878 0.042984
0.837993 0.034878 0.042984
0.016118 0.024918 0.042518
0.016118 0.024918 0.042518
0.016118 0.024918 0.042518
0.016118 0.024918 0.042518
0.016118 0.024918 0.042518
0.159772 0.026663 0.042607
0.016118 0.024918 0.042518
0.016118 0.024918 0.042518
0.016118 0.024918 0.042518
0.016118 0.024918 0.042518
0.016118 0.024918 0.042518
0.016118 0.024918 0.042518
0.316390 0.028642 0.042835
0.464653 0.030592 0.043183
0.596764 0.032397 0.043608
0.726314 0.034226 0.044127
0.805681 0.034674 0.043289
0.837993 0.034878 0.042984
0.837993 0.034878 0.042984
0.837993 0.034878 0.042984
0.837993 0.034878 0.042984
0.837993 0.034878 0.042984
0.837993 0.034878 0.042984
0.837993 0.034878 0.042984
0.837993 0.034878 0.042984
0.837993 0.034878 0.042984
0.837993 0.034878 0.042984
0.837993 0.034878 0.042984
0.837993 0.034878 0.042984
0.837993 0.034878 0.042984
0.837993 0.034878 0.042984
0.837993 0.034878 0.042984
0.837993 0.034878 0.042984
0.016118 0.024918 0.042518
0.016118 0.024918 0.042518
0.016118 0.024918 0.042518
0.016118 0.024918 0.042518
0.016118 0.024918 0.042518
0.159772 0.026663 0.042607
0.016118 0.024918 0.042518
0.016118 0.024918 0.042518
0.016118 0.024918 0.042518
0.016118 0.024918 0.042518
0.016118 0.024918 0.042518
0.016118 0.024918 0.042518
0.316390 0.028642 0.042835
0.464653 0.030592 0.043183
0.596764 0.032397 0.043608
0.726314 0.034226 0.044127
0.805681 0.034674 0.043289
0.837993 0.034878 0.042984
0.837993 0.034878 0.042984
0.837993 0.034878 0.042984
0.837993 0.034878 0.042984
0.837993 0.034878 0.042984
0.837993 0.034878 0.042984
0.837993 0.034878 0.042984
0.837993 0.034878 0.042984
0.837993 0.034878 0.042984
0.837993 0.034878 0.042984
0.837993 0.034878 0.042984
0.837993 0.034878 0.042984
0.837993 0.034878 0.042984
0.837993 0.034878 0.042984
0.837993 0.034878 0.042984
0.837993 0.034878 0.042984
0.041435 0.165866 0.056933
0.041435 0.165866 0.056933
0.041435 0.165866 0.056933
0.041435 0.165866 0.056933
0.041435 0.165866 0.056933
0.168728 0.174061 0.044556
0.041435 0.165866 0.056933
0.041435 0.165866 0.056933
0.041435 0.165866 0.056933
0.041435 0.165866 0.056933
0.041435 0.165866 0.056933
0.041435 0.165866 0.056933
0.325559 0.176385 0.044485
0.474002 0.178614 0.045308
0.606283 0.180681 0.046182
0.736329 0.182794 0.047179
0.816877 0.183571 0.046883
0.849243 0.183903 0.046798
0.849243 0.183903 0.046798
0.849243 0.183903 0.046798
0.849243 0.183903 0.046798
0.849243 0.183903 0.046798
0.849243 0.183903 0.046798
0.849243 0.183903 0.046798
0.849243 0.183903 0.046798
0.849243 0.183903 0.046798
0.849243 0.183903 0.046798
0.849243 0.183903 0.046798
0.849243 0.183903 0.046798
0.849243 0.183903 0.046798
0.849243 0.183903 0.046798
0.849243 0.183903 0.046798
0.849243 0.183903 0.046798
0.016118 0.024918 0.042518
0.016118 0.024918 0.042518
0.016118 0.024918 0.042518
0.016118 0.024918 0.042518
0.016118 0.024918 0.042518
0.159772 0.026663 0.042607
0.016118 0.024918 0.042518
0.016118 0.024918 0.042518
0.016118 0.024918 0.042518
0.016118 0.024918 0.042518
0.016118 0.024918 0.042518
0.016118 0.024918 0.042518
0.316390 0.028642 0.042835
0.464653 0.030592 0.043183
0.596764 0.032397 0.043608
0.726314 0.034226 0.044127
0.805681 0.034674 0.043289
0.837993 0.034878 0.042984
0.837993 0.034878 0.042984
0.837993 0.034878 0.042984
0.837993 0.034878 0.042984
0.837993 0.034878 0.042984
0.837993 0.034878 0.042984
0.837993 0.034878 0.042984
0.837993 0.034878 0.042984
0.837993 0.034878 0.042984
0.837993 0.034878 0.042984
0.837993 0.034878 0.042984
0.837993 0.034878 0.042984
0.837993 0.034878 0.042984
0.837993 0.034878 0.042984
0.837993 0.034878 0.042984
0.837993 0.034878 0.042984
0.016118 0.024918 0.042518
0.016118 0.024918 0.042518
0.016118 0.024918 0.042518
0.016118 0.024918 0.042518
0.016118 0.024918 0.042518
0.159772 0.026663 0.042607
0.016118 0.024918 0.042518
0.016118 0.024918 0.042518
0.016118 0.024918 0.042518
0.016118 0.024918 0.042518
0.016118 0.024918 0.042518
0.016118 0.024918 0.042518
0.316390 0.028642 0.042835
0.464653 0.030592 0.043183
0.596764 0.032397 0.043608
0.726314 0.034226 0.044127
0.805681 0.034674 0.043289
0.837993 0.034878 0.042984
0.837993 0.034878 0.042984
0.837993 0.034878 0.042984
0.837993 0.034878 0.042984
0.837993 0.034878 0.042984
0.837993 0.034878 0.042984
0.837993 0.034878 0.042984
0.837993 0.034878 0.042984
0.837993 0.034878 0.042984
0.837993 0.034878 0.042984
0.837993 0.034878 0.042984
0.837993 0.034878 0.042984
0.837993 0.034878 0.042984
0.837993 0.034878 0.042984
0.837993 0.034878 0.042984
0.837993 0.034878 0.042984
0.016118 0.024918 0.042518
0.016118 0.024918 0.042518
0.016118 0.024918 0.042518
0.016118 0.024918 0.042518
0.016118 0.024918 0.042518
0.159772 0.026663 0.042607
0.016118 0.024918 0.042518
0.016118 0.024918 0.042518
0.016118 0.024918 0.042518
0.016118 0.024918 0.042518
0.016118 0.024918 0.042518
0.016118 0.024918 0.042518
0.316390 0.028642 0.042835
0.464653 0.030592 0.043183
0.596764 0.032397 0.043608
0.726314 0.034226 0.044127
0.805681 0.034674 0.043289
0.837993 0.034878 0.042984
0.837993 0.034878 0.042984
0.837993 0.034878 0.042984
0.837993 0.034878 0.042984
0.837993 0.034878 0.042984
0.837993 0.034878 0.042984
0.837993 0.034878 0.042984
0.837993 0.034878 0.042984
0.837993 0.034878 0.042984
0.837993 0.034878 0.042984
0.837993 0.034878 0.042984
0.837993 0.034878 0.042984
0.837993 0.034878 0.042984
0.837993 0.034878 0.042984
0.837993 0.034878 0.042984
0.837993 0.034878 0.042984
0.016118 0.024918 0.042518
0.016118 0.024918 0.042518
0.016118 0.024918 0.042518
0.016118 0.024918 0.042518
0.016118 0.024918 0.042518
0.159772 0.026663 0.042607
0.016118 0.024918 0.042518
0.016118 0.024918 0.042518
0.016118 0.024918 0.042518
0.016118 0.024918 0.042518
0.016118 0.024918 0.042518
0.016118 0.024918 0.042518
0.316390 0.028642 0.042835
0.464653 0.030592 0.043183
0.596764 0.032397 0.043608
0.726314 0.034226 0.044127
0.805681 0.034674 0.043289
0.837993 0.034878 0.042984
0.837993 0.034878 0.042984
0.837993 0.034878 0.042984
0.837993 0.034878 0.042984
0.837993 0.034878 0.042984
0.837993 0.034878 0.042984
0.837993 0.034878 0.042984
0.837993 0.034878 0.042984
0.837993 0.034878 0.042984
0.837993 0.034878 0.042984
0.837993 0.034878 0.042984
0.837993 0.034878 0.042984
0.837993 0.034878 0.042984
0.837993 0.034878 0.042984
0.837993 0.034878 0.042984
0.837993 0.034878 0.042984
0.016118 0.024918 0.042518
0.016118 0.024918 0.042518
0.016118 0.024918 0.042518
0.016118 0.024918 0.042518
0.016118 0.024918 0.042518
0.159772 0.026663 0.042607
0.016118 0.024918 0.042518
0.016118 0.024918 0.042518
0.016118 0.024918 0.042518
0.016118 0.024918 0.042518
0.016118 0.024918 0.042518
0.016118 0.024918 0.042518
0.316390 0.028642 0.042835
0.464653 0.030592 0.043183
0.596764 0.032397 0.043608
0.726314 0.034226 0.044127
0.805681 0.034674 0.043289
0.837993 0.034878 0.042984
0.837993 0.034878 0.042984
0.837993 0.034878 0.042984
0.837993 0.034878 0.042984
0.837993 0.034878 0.042984
0.837993 0.034878 0.042984
0.837993 0.034878 0.042984
0.837993 0.034878 0.042984
0.837993 0.034878 0.042984
0.837993 0.034878 0.042984
0.837993 0.034878 0.042984
0.837993 0.034878 0.042984
0.837993 0.034878 0.042984
0.837993 0.034878 0.042984
0.837993 0.034878 0.042984
0.837993 0.034878 0.042984
0.016118 0.024918 0.042518
0.016118 0.024918 0.042518
0.016118 0.024918 0.042518
0.016118 0.024918 0.042518
0.016118 0.024918 0.042518
0.159772 0.026663 0.042607
0.016118 0.024918 0.042518
0.016118 0.024918 0.042518
0.016118 0.024918 0.042518
0.016118 0.024918 0.042518
0.016118 0.024918 0.042518
0.016118 0.024918 0.042518
0.316390 0.028642 0.042835
0.464653 0.030592 0.043183
0.596764 0.032397 0.043608
0.726314 0.034226 0.044127
0.805681 0.034674 0.043289
0.837993 0.034878 0.042984
0.837993 0.034878 0.042984
0.837993 0.034878 0.042984
0.837993 0.034878 0.042984
0.837993 0.034878 0.042984
0.837993 0.034878 0.042984
0.837993 0.034878 0.042984
0.837993 0.034878 0.042984
0.837993 0.034878 0.042984
0.837993 0.034878 0.042984
0.837993 0.034878 0.042984
0.837993 0.034878 0.042984
0.837993 0.034878 0.042984
0.837993 0.034878 0.042984
0.837993 0.034878 0.042984
0.837993 0.034878 0.042984
0.078053 0.316753 0.086525
0.078053 0.316753 0.086525
0.078053 0.316753 0.086525
0.078053 0.316753 0.086525
0.078053 0.316753 0.086525
0.198506 0.325718 0.091013
0.078053 0.316753 0.086525
0.078053 0.316753 0.086525
0.078053 0.316753 0.086525
0.078053 0.316753 0.086525
0.078053 0.316753 0.086525
0.078053 0.316753 0.086525
0.336229 0.338479 0.048933
0.484977 0.341157 0.049697
0.617506 0.343609 0.051226
0.747825 0.346143 0.052941
0.829763 0.347440 0.053512
0.862226 0.347996 0.053809
0.862226 0.347996 0.053809
0.862226 0.347996 0.053809
0.862226 0.347996 0.053809
0.862226 0.347996 0.053809
0.862226 0.347996 0.053809
0.862226 0.347996 0.053809
0.862226 0.347996 0.053809
0.862226 0.347996 0.053809
0.862226 0.347996 0.053809
0.862226 0.347996 0.053809
0.862226 0.347996 0.053809
0.862226 0.347996 0.053809
0.862226 0.347996 0.053809
0.862226 0.347996 0.053809
0.862226 0.347996 0.053809
0.108987 0.462481 0.112616
0.108987 0.462481 0.112616
0.108987 0.462481 0.112616
0.108987 0.462481 0.112616
0.108987 0.462481 0.112616
0.230967 0.471212 0.120575
0.108987 0.462481 0.112616
0.108987 0.462481 0.112616
0.108987 0.462481 0.112616
0.108987 0.462481 0.112616
0.108987 0.462481 0.112616
0.108987 0.462481 0.112616
0.361990 0.482464 0.120244
0.496462 0.496680 0.056877
0.629465 0.499860 0.059527
0.762164 0.504271 0.063271
0.846003 0.507734 0.065728
0.879328 0.509162 0.066710
0.879328 0.509162 0.066710
0.879328 0.509162 0.066710
0.879328 0.509162 0.066710
0.879328 0.509162 0.066710
0.879328 0.509162 0.066710
0.879328 0.509162 0.066710
0.879328 0.509162 0.066710
0.879328 0.509162 0.066710
0.879328 0.509162 0.066710
0.879328 0.509162 0.066710
0.879328 0.509162 0.066710
0.879328 0.509162 0.066710
0.879328 0.509162 0.066710
0.879328 0.509162 0.066710
0.879328 0.509162 0.066710
0.137576 0.593737 0.138123
0.137576 0.593737 0.138123
0.137576 0.593737 0.138123
0.137576 0.593737 0.138123
0.137576 0.593737 0.138123
0.260082 0.603200 0.147231
0.137576 0.593737 0.138123
0.137576 0.593737 0.138123
0.137576 0.593737 0.138123
0.137576 0.593737 0.138123
0.137576 0.593737 0.138123
0.137576 0.593737 0.138123
0.396148 0.615256 0.158567
0.522905 0.630359 0.145311
0.650362 0.645848 0.072651
0.782899 0.650910 0.076500
0.865095 0.654645 0.078939
0.898573 0.656183 0.079933
0.898573 0.656183 0.079933
0.898573 0.656183 0.079933
0.898573 0.656183 0.079933
0.898573 0.656183 0.079933
0.898573 0.656183 0.079933
0.898573 0.656183 0.079933
0.898573 0.656183 0.079933
0.898573 0.656183 0.079933
0.898573 0.656183 0.079933
0.898573 0.656183 0.079933
0.898573 0.656183 0.079933
0.898573 0.656183 0.079933
0.898573 0.656183 0.079933
0.898573 0.656183 0.079933
0.898573 0.656183 0.079933
0.172338 0.728018 0.168568
0.172338 0.728018 0.168568
0.172338 0.728018 0.168568
0.172338 0.728018 0.168568
0.172338 0.728018 0.168568
0.298224 0.739631 0.179176
0.172338 0.728018 0.168568
0.172338 0.728018 0.168568
0.172338 0.728018 0.168568
0.172338 0.728018 0.168568
0.172338 0.728018 0.168568
0.172338 0.728018 0.168568
0.435664 0.752411 0.190778
0.565906 0.764597 0.201789
0.679497 0.779707 0.173673
0.802283 0.794806 0.089456
0.884653 0.798074 0.091859
0.918192 0.799411 0.092838
0.918192 0.799411 0.092838
0.918192 0.799411 0.092838
0.918192 0.799411 0.092838
0.918192 0.799411 0.092838
0.918192 0.799411 0.092838
0.918192 0.799411 0.092838
0.918192 0.799411 0.092838
0.918192 0.799411 0.092838
0.918192 0.799411 0.092838
0.918192 0.799411 0.092838
0.918192 0.799411 0.092838
0.918192 0.799411 0.092838
0.918192 0.799411 0.092838
0.918192 0.799411 0.092838
0.918192 0.799411 0.092838
0.200832 0.814331 0.189072
0.200832 0.814331 0.189072
0.200832 0.814331 0.189072
0.200832 0.814331 0.189072
0.200832 0.814331 0.189072
0.327097 0.825600 0.199629
0.200832 0.814331 0.189072
0.200832 0.814331 0.189072
0.200832 0.814331 0.189072
0.200832 0.814331 0.189072
0.200832 0.814331 0.189072
0.200832 0.814331 0.189072
0.464842 0.837926 0.211153
0.595301 0.849629 0.222074
0.711588 0.860081 0.231813
0.817189 0.878153 0.154406
0.900088 0.887125 0.099966
0.933690 0.888490 0.100949
0.933690 0.888490 0.100949
0.933690 0.888490 0.100949
0.933690 0.888490 0.100949
0.933690 0.888490 0.100949
0.933690 0.888490 0.100949
0.933690 0.888490 0.100949
0.933690 0.888490 0.100949
0.933690 0.888490 0.100949
0.933690 0.888490 0.100949
0.933690 0.888490 0.100949
0.933690 0.888490 0.100949
0.933690 0.888490 0.100949
0.933690 0.888490 0.100949
0.933690 0.888490 0.100949
0.933690 0.888490 0.100949
0.212650 0.848811 0.197291
0.212650 0.848811 0.197291
0.212650 0.848811 0.197291
0.212650 0.848811 0.197291
0.212650 0.848811 0.197291
0.339054 0.860128 0.207867
0.212650 0.848811 0.197291
0.212650 0.848811 0.197291
0.212650 0.848811 0.197291
0.212650 0.848811 0.197291
0.212650 0.848811 0.197291
0.212650 0.848811 0.197291
0.476932 0.872502 0.219410
0.607504 0.884245 0.230347
0.723883 0.894730 0.240098
0.825832 0.910882 0.186188
0.905577 0.922155 0.118653
0.940131 0.924806 0.104258
0.940131 0.924806 0.104258
0.940131 0.924806 0.104258
0.940131 0.924806 0.104258
0.940131 0.924806 0.104258
0.940131 0.924806 0.104258
0.940131 0.924806 0.104258
0.940131 0.924806 0.104258
0.940131 0.924806 0.104258
0.940131 0.924806 0.104258
0.940131 0.924806 0.104258
0.940131 0.924806 0.104258
0.940131 0.924806 0.104258
0.940131 0.924806 0.104258
0.940131 0.924806 0.104258
0.940131 0.924806 0.104258
0.212650 0.848811 0.197291
0.212650 0.848811 0.197291
0.212650 0.848811 0.197291
0.212650 0.848811 0.197291
0.212650 0.848811 0.197291
0.339054 0.860128 0.207867
0.212650 0.848811 0.197291
0.212650 0.848811 0.197291
0.212650 0.848811 0.197291
0.212650 0.848811 0.197291
0.212650 0.848811 0.197291
0.212650 0.848811 0.197291
0.476932 0.872502 0.219410
0.607504 0.884245 0.230347
0.723883 0.894730 0.240098
0.825832 0.910882 0.186188
0.905577 0.922155 0.118653
0.940131 0.924806 0.104258
0.940131 0.924806 0.104258
0.940131 0.924806 0.104258
0.940131 0.924806 0.104258
0.940131 0.924806 0.104258
0.940131 0.924806 0.104258
0.940131 0.924806 0.104258
0.940131 0.924806 0.104258
0.940131 0.924806 0.104258
0.940131 0.924806 0.104258
0.940131 0.924806 0.104258
0.940131 0.924806 0.104258
0.940131 0.924806 0.104258
0.940131 0.924806 0.104258
0.940131 0.924806 0.104258
0.940131 0.924806 0.104258
0.212650 0.848811 0.197291
0.212650 0.848811 0.197291
0.212650 0.848811 0.197291
0.212650 0.848811 0.197291
0.212650 0.848811 0.197291
0.339054 0.860128 0.207867
0.212650 0.848811 0.197291
0.212650 0.848811 0.197291
0.212650 0.848811 0.197291
0.212650 0.848811 0.197291
0.212650 0.848811 0.197291
0.212650 0.848811 0.197291
0.476932 0.872502 0.219410
0.607504 0.884245 0.230347
0.723883 0.894730 0.240098
0.825832 0.910882 0.186188
0.905577 0.922155 0.118653
0.940131 0.924806 0.104258
0.940131 0.924806 0.104258
0.940131 0.924806 0.104258
0.940131 0.924806 0.104258
0.940131 0.924806 0.104258
0.940131 0.924806 0.104258
0.940131 0.924806 0.104258
0.940131 0.924806 0.104258
0.940131 0.924806 0.104258
0.940131 0.924806 0.104258
0.940131 0.924806 0.104258
0.940131 0.924806 0.104258
0.940131 0.924806 0.104258
0.940131 0.924806 0.104258
0.940131 0.924806 0.104258
0.940131 0.924806 0.104258
0.212650 0.848811 0.197291
0.212650 0.848811 0.197291
0.212650 0.848811 0.197291
0.212650 0.848811 0.197291
0.212650 0.848811 0.197291
0.339054 0.860128 0.207867
0.212650 0.848811 0.197291
0.212650 0.848811 0.197291
0.212650 0.848811 0.197291
0.212650 0.848811 0.197291
0.212650 0.848811 0.197291
0.212650 0.848811 0.197291
0.476932 0.872502 0.219410
0.607504 0.884245 0.230347
0.723883 0.894730 0.240098
0.825832 0.910882 0.186188
0.905577 0.922155 0.118653
0.940131 0.924806 0.104258
0.940131 0.924806 0.104258
0.940131 0.924806 0.104258
0.940131 0.924806 0.104258
0.940131 0.924806 0.104258
0.940131 0.924806 0.104258
0.940131 0.924806 0.104258
0.940131 0.924806 0.104258
0.940131 0.924806 0.104258
0.940131 0.924806 0.104258
0.940131 0.924806 0.104258
0.940131 0.924806 0.104258
0.940131 0.924806 0.104258
0.940131 0.924806 0.104258
0.940131 0.924806 0.104258
0.940131 0.924806 0.104258
0.212650 0.848811 0.197291
0.212650 0.848811 0.197291
0.212650 0.848811 0.197291
0.212650 0.848811 0.197291
0.212650 0.848811 0.197291
0.339054 0.860128 0.207867
0.212650 0.848811 0.197291
0.212650 0.848811 0.197291
0.212650 0.848811 0.197291
0.212650 0.848811 0.197291
0.212650 0.848811 0.197291
0.212650 0.848811 0.197291
0.476932 0.872502 0.219410
0.607504 0.884245 0.230347
0.723883 0.894730 0.240098
0.825832 0.910882 0.186188
0.905577 0.922155 0.118653
0.940131 0.924806 0.104258
0.940131 0.924806 0.104258
0.940131 0.924806 0.104258
0.940131 0.924806 0.104258
0.940131 0.924806 0.104258
0.940131 0.924806 0.104258
0.940131 0.924806 0.104258
0.940131 0.924806 0.104258
0.940131 0.924806 0.104258
0.940131 0.924806 0.104258
0.940131 0.924806 0.104258
0.940131 0.924806 0.104258
0.940131 0.924806 0.104258
0.940131 0.924806 0.104258
0.940131 0.924806 0.104258
0.940131 0.924806 0.104258
0.212650 0.848811 0.197291
0.212650 0.848811 0.197291
0.212650 0.848811 0.197291
0.212650 0.848811 0.197291
0.212650 0.848811 0.197291
0.339054 0.860128 0.207867
0.212650 0.848811 0.197291
0.212650 0.848811 0.197291
0.212650 0.848811 0.197291
0.212650 0.848811 0.197291
0.212650 0.848811 0.197291
0.212650 0.848811 0.197291
0.476932 0.872502 0.219410
0.607504 0.884245 0.230347
0.723883 0.894730 0.240098
0.825832 0.910882 0.186188
0.905577 0.922155 0.118653
0.940131 0.924806 0.104258
0.940131 0.924806 0.104258
0.940131 0.924806 0.104258
0.940131 0.924806 0.104258
0.940131 0.924806 0.104258
0.940131 0.924806 0.104258
0.940131 0.924806 0.104258
0.940131 0.924806 0.104258
0.940131 0.924806 0.104258
0.940131 0.924806 0.104258
0.940131 0.924806 0.104258
0.940131 0.924806 0.104258
0.940131 0.924806 0.104258
0.940131 0.924806 0.104258
0.940131 0.924806 0.104258
0.940131 0.924806 0.104258
0.212650 0.848811 0.197291
0.212650 0.848811 0.197291
0.212650 0.848811 0.197291
0.212650 0.848811 0.197291
0.212650 0.848811 0.197291
0.339054 0.860128 0.207867
0.212650 0.848811 0.197291
0.212650 0.848811 0.197291
0.212650 0.848811 0.197291
0.212650 0.848811 0.197291
0.212650 0.848811 0.197291
0.212650 0.848811 0.197291
0.476932 0.872502 0.219410
0.607504 0.884245 0.230347
0.723883 0.894730 0.240098
0.825832 0.910882 0.186188
0.905577 0.922155 0.118653
0.940131 0.924806 0.104258
0.940131 0.924806 0.104258
0.940131 0.924806 0.104258
0.940131 0.924806 0.104258
0.940131 0.924806 0.104258
0.940131 0.924806 0.104258
0.940131 0.924806 0.104258
0.940131 0.924806 0.104258
0.940131 0.924806 0.104258
0.940131 0.924806 0.104258
0.940131 0.924806 0.104258
0.940131 0.924806 0.104258
0.940131 0.924806 0.104258
0.940131 0.924806 0.104258
0.940131 0.924806 0.104258
0.940131 0.924806 0.104258
0.212650 0.848811 0.197291
0.212650 0.848811 0.197291
0.212650 0.848811 0.197291
0.212650 0.848811 0.197291
0.212650 0.848811 0.197291
0.339054 0.860128 0.207867
0.212650 0.848811 0.197291
0.212650 0.848811 0.197291
0.212650 0.848811 0.197291
0.212650 0.848811 0.197291
0.212650 0.848811 0.197291
0.212650 0.848811 0.197291
0.476932 0.872502 0.219410
0.607504 0.884245 0.230347
0.723883 0.894730 0.240098
0.825832 0.910882 0.186188
0.905577 0.922155 0.118653
0.940131 0.924806 0.104258
0.940131 0.924806 0.104258
0.940131 0.924806 0.104258
0.940131 0.924806 0.104258
0.940131 0.924806 0.104258
0.940131 0.924806 0.104258
0.940131 0.924806 0.104258
0.940131 0.924806 0.104258
0.940131 0.924806 0.104258
0.940131 0.924806 0.104258
0.940131 0.924806 0.104258
0.940131 0.924806 0.104258
0.940131 0.924806 0.104258
0.940131 0.924806 0.104258
0.940131 0.924806 0.104258
0.940131 0.924806 0.104258
0.212650 0.848811 0.197291
0.212650 0.848811 0.197291
0.212650 0.848811 0.197291
0.212650 0.848811 0.197291
0.212650 0.848811 0.197291
0.339054 0.860128 0.207867
0.212650 0.848811 0.197291
0.212650 0.848811 0.197291
0.212650 0.848811 0.197291
0.212650 0.848811 0.197291
0.212650 0.848811 0.197291
0.212650 0.848811 0.197291
0.476932 0.872502 0.219410
0.607504 0.884245 0.230347
0.723883 0.894730 0.240098
0.825832 0.910882 0.186188
0.905577 0.922155 0.118653
0.940131 0.924806 0.104258
0.940131 0.924806 0.104258
0.940131 0.924806 0.104258
0.940131 0.924806 0.104258
0.940131 0.924806 0.104258
0.940131 0.924806 0.104258
0.940131 0.924806 0.104258
0.940131 0.924806 0.104258
0.940131 0.924806 0.104258
0.940131 0.924806 0.104258
0.940131 0.924806 0.104258
0.940131 0.924806 0.104258
0.940131 0.924806 0.104258
0.940131 0.924806 0.104258
0.940131 0.924806 0.104258
0.940131 0.924806 0.104258
0.212650 0.848811 0.197291
0.212650 0.848811 0.197291
0.212650 0.848811 0.197291
0.212650 0.848811 0.197291
0.212650 0.848811 0.197291
0.339054 0.860128 0.207867
0.212650 0.848811 0.197291
0.212650 0.848811 0.197291
0.212650 0.848811 0.197291
0.212650 0.848811 0.197291
0.212650 0.848811 0.197291
0.212650 0.848811 0.197291
0.476932 0.872502 0.219410
0.607504 0.884245 0.230347
0.723883 0.894730 0.240098
0.825832 0.910882 0.186188
0.905577 0.922155 0.118653
0.940131 0.924806 0.104258
0.940131 0.924806 0.104258
0.940131 0.924806 0.104258
0.940131 0.924806 0.104258
0.940131 0.924806 0.104258
0.940131 0.924806 0.104258
0.940131 0.924806 0.104258
0.940131 0.924806 0.104258
0.940131 0.924806 0.104258
0.940131 0.924806 0.104258
