luts/botw-vista-vlog.cube
TITLE "BotW Vista - VLog Input"
LUT_3D_SIZE 9
DOMAIN_MIN 0.0 0.0 0.0
DOMAIN_MAX 1.0 1.0 1.0
0.016118 0.024918 0.042518
0.016118 0.024918 0.042518
0.016118 0.024918 0.042518
0.316390 0.028642 0.042835
0.805681 0.034674 0.043289
0.837993 0.034878 0.042984
0.837993 0.034878 0.042984
0.837993 0.034878 0.042984
0.837993 0.034878 0.042984
0.016118 0.024918 0.042518
0.016118 0.024918 0.042518
0.016118 0.024918 0.042518
0.316390 0.028642 0.042835
0.805681 0.034674 0.043289
0.837993 0.034878 0.042984
0.837993 0.034878 0.042984
0.837993 0.034878 0.042984
0.837993 0.034878 0.042984
0.016118 0.024918 0.042518
0.016118 0.024918 0.042518
0.016118 0.024918 0.042518
0.316390 0.028642 0.042835
0.805681 0.034674 0.043289
0.837993 0.034878 0.042984
0.837993 0.034878 0.042984
0.837993 0.034878 0.042984
0.837993 0.034878 0.042984
0.078053 0.316753 0.086525
0.078053 0.316753 0.086525
0.078053 0.316753 0.086525
0.336229 0.338479 0.048933
0.829763 0.347440 0.053512
0.862226 0.347996 0.053809
0.862226 0.347996 0.053809
0.862226 0.347996 0.053809
0.862226 0.347996 0.053809
0.200832 0.814331 0.189072
0.200832 0.814331 0.189072
0.200832 0.814331 0.189072
0.464842 0.837926 0.211153
0.900088 0.887125 0.099966
0.933690 0.888490 0.100949
0.933690 0.888490 0.100949
0.933690 0.888490 0.100949
0.933690 0.888490 0.100949
0.212650 0.848811 0.197291
0.212650 0.848811 0.197291
0.212650 0.848811 0.197291
0.476932 0.872502 0.219410
0.905577 0.922155 0.118653
0.940131 0.924806 0.104258
0.940131 0.924806 0.104258
0.940131 0.924806 0.104258
0.940131 0.924806 0.104258
0.212650 0.848811 0.197291
0.212650 0.848811 0.197291
0.212650 0.848811 0.197291
0.476932 0.872502 0.219410
0.905577 0.922155 0.118653
0.940131 0.924806 0.104258
0.940131 0.924806 0.104258
0.940131 0.924806 0.104258
0.940131 0.924806 0.104258
0.212650 0.848811 0.197291
0.212650 0.848811 0.197291
0.212650 0.848811 0.197291
0.476932 0.872502 0.219410
0.905577 0.922155 0.118653
0.940131 0.924806 0.104258
0.940131 0.924806 0.104258
0.940131 0.924806 0.104258
0.940131 0.924806 0.104258
0.212650 0.848811 0.197291
0.212650 0.848811 0.197291
0.212650 0.848811 0.197291
0.476932 0.872502 0.219410
0.905577 0.922155 0.118653
0.940131 0.924806 0.104258
0.940131 0.924806 0.104258
0.940131 0.924806 0.104258
0.940131 0.924806 0.104258
0.016118 0.024918 0.042518
0.016118 0.024918 0.042518
0.016118 0.024918 0.042518
0.316390 0.028642 0.042835
0.805681 0.034674 0.043289
0.837993 0.034878 0.042984
0.837993 0.034878 0.042984
0.837993 0.034878 0.042984
0.837993 0.034878 0.042984
0.016118 0.024918 0.042518
0.016118 0.024918 0.042518
0.016118 0.024918 0.042518
0.316390 0.028642 0.042835
0.805681 0.034674 0.043289
0.837993 0.034878 0.042984
0.837993 0.034878 0.042984
0.837993 0.034878 0.042984
0.837993 0.034878 0.042984
0.016118 0.024918 0.042518
0.016118 0.024918 0.042518
0.016118 0.024918 0.042518
0.316390 0.028642 0.042835
0.805681 0.034674 0.043289
0.837993 0.034878 0.042984
0.837993 0.034878 0.042984
0.837993 0.034878 0.042984
0.837993 0.034878 0.042984
0.078053 0.316753 0.086525
0.078053 0.316753 0.086525
0.078053 0.316753 0.086525
0.336229 0.338479 0.048933
0.829763 0.347440 0.053512
0.862226 0.347996 0.053809
0.862226 0.347996 0.053809
0.862226 0.347996 0.053809
0.862226 0.347996 0.053809
0.200832 0.814331 0.189072
0.200832 0.814331 0.189072
0.200832 0.814331 0.189072
0.464842 0.837926 0.211153
0.900088 0.887125 0.099966
0.933690 0.888490 0.100949
0.933690 0.888490 0.100949
0.933690 0.888490 0.100949
0.933690 0.888490 0.100949
0.212650 0.848811 0.197291
0.212650 0.848811 0.197291
0.212650 0.848811 0.197291
0.476932 0.872502 0.219410
0.905577 0.922155 0.118653
0.940131 0.924806 0.104258
0.940131 0.924806 0.104258
0.940131 0.924806 0.104258
0.940131 0.924806 0.104258
0.212650 0.848811 0.197291
0.212650 0.848811 0.197291
0.212650 0.848811 0.197291
0.476932 0.872502 0.219410
0.905577 0.922155 0.118653
0.940131 0.924806 0.104258
0.940131 0.924806 0.104258
0.940131 0.924806 0.104258
0.940131 0.924806 0.104258
0.212650 0.848811 0.197291
0.212650 0.848811 0.197291
0.212650 0.848811 0.197291
0.476932 0.872502 0.219410
0.905577 0.922155 0.118653
0.940131 0.924806 0.104258
0.940131 0.924806 0.104258
0.940131 0.924806 0.104258
0.940131 0.924806 0.104258
0.212650 0.848811 0.197291
0.212650 0.848811 0.197291
0.212650 0.848811 0.197291
0.476932 0.872502 0.219410
0.905577 0.922155 0.118653
0.940131 0.924806 0.104258
0.940131 0.924806 0.104258
0.940131 0.924806 0.104258
0.940131 0.924806 0.104258
0.016118 0.024918 0.042518
0.016118 0.024918 0.042518
0.016118 0.024918 0.042518
0.316390 0.028642 0.042835
0.805681 0.034674 0.043289
0.837993 0.034878 0.042984
0.837993 0.034878 0.042984
0.837993 0.034878 0.042984
0.837993 0.034878 0.042984
0.016118 0.024918 0.042518
0.016118 0.024918 0.042518
0.016118 0.024918 0.042518
0.316390 0.028642 0.042835
0.805681 0.034674 0.043289
0.837993 0.034878 0.042984
0.837993 0.034878 0.042984
0.837993 0.034878 0.042984
0.837993 0.034878 0.042984
0.016118 0.024918 0.042518
0.016118 0.024918 0.042518
0.016118 0.024918 0.042518
0.316390 0.028642 0.042835
0.805681 0.034674 0.043289
0.837993 0.034878 0.042984
0.837993 0.034878 0.042984
0.837993 0.034878 0.042984
0.837993 0.034878 0.042984
0.078053 0.316753 0.086525
0.078053 0.316753 0.086525
0.078053 0.316753 0.086525
0.336229 0.338479 0.048933
0.829763 0.347440 0.053512
0.862226 0.347996 0.053809
0.862226 0.347996 0.053809
0.862226 0.347996 0.053809
0.862226 0.347996 0.053809
0.200832 0.814331 0.189072
0.200832 0.814331 0.189072
0.200832 0.814331 0.189072
0.464842 0.837926 0.211153
0.900088 0.887125 0.099966
0.933690 0.888490 0.100949
0.933690 0.888490 0.100949
0.933690 0.888490 0.100949
0.933690 0.888490 0.100949
0.212650 0.848811 0.197291
0.212650 0.848811 0.197291
0.212650 0.848811 0.197291
0.476932 0.872502 0.219410
0.905577 0.922155 0.118653
0.940131 0.924806 0.104258
0.940131 0.924806 0.104258
0.940131 0.924806 0.104258
0.940131 0.924806 0.104258
0.212650 0.848811 0.197291
0.212650 0.848811 0.197291
0.212650 0.848811 0.197291
0.476932 0.872502 0.219410
0.905577 0.922155 0.118653
0.940131 0.924806 0.104258
0.940131 0.924806 0.104258
0.940131 0.924806 0.104258
0.940131 0.924806 0.104258
0.212650 0.848811 0.197291
0.212650 0.848811 0.197291
0.212650 0.848811 0.197291
0.476932 0.872502 0.219410
0.905577 0.922155 0.118653
0.940131 0.924806 0.104258
0.940131 0.924806 0.104258
0.940131 0.924806 0.104258
0.940131 0.924806 0.104258
0.212650 0.848811 0.197291
0.212650 0.848811 0.197291
0.212650 0.848811 0.197291
0.476932 0.872502 0.219410
0.905577 0.922155 0.118653
0.940131 0.924806 0.104258
0.940131 0.924806 0.104258
0.940131 0.924806 0.104258
0.940131 0.924806 0.104258
0.017940 0.026150 0.337414
0.017940 0.026150 0.337414
0.017940 0.026150 0.337414
0.318278 0.029976 0.337905
0.808004 0.036232 0.338735
0.840325 0.036460 0.338472
0.840325 0.036460 0.338472
0.840325 0.036460 0.338472
0.840325 0.036460 0.338472
0.017940 0.026150 0.337414
0.017940 0.026150 0.337414
0.017940 0.026150 0.337414
0.318278 0.029976 0.337905
0.808004 0.036232 0.338735
0.840325 0.036460 0.338472
0.840325 0.036460 0.338472
0.840325 0.036460 0.338472
0.840325 0.036460 0.338472
0.017940 0.026150 0.337414
0.017940 0.026150 0.337414
0.017940 0.026150 0.337414
0.318278 0.029976 0.337905
0.808004 0.036232 0.338735
0.840325 0.036460 0.338472
0.840325 0.036460 0.338472
0.840325 0.036460 0.338472
0.840325 0.036460 0.338472
0.037299 0.335222 0.341381
0.037299 0.335222 0.341381
0.037299 0.335222 0.341381
0.338463 0.340326 0.344052
0.832382 0.349686 0.350134
0.864878 0.350318 0.350563
0.864878 0.350318 0.350563
0.864878 0.350318 0.350563
0.864878 0.350318 0.350563
0.209983 0.821976 0.420617
0.209983 0.821976 0.420617
0.209983 0.821976 0.420617
0.473995 0.845470 0.437406
0.904530 0.890548 0.364218
0.938131 0.891906 0.363898
0.938131 0.891906 0.363898
0.938131 0.891906 0.363898
0.938131 0.891906 0.363898
0.221808 0.856398 0.425685
0.221808 0.856398 0.425685
0.221808 0.856398 0.425685
0.486065 0.879976 0.442325
0.910409 0.925989 0.373016
0.944568 0.928196 0.362767
0.944568 0.928196 0.362767
0.944568 0.928196 0.362767
0.944568 0.928196 0.362767
0.221808 0.856398 0.425685
0.221808 0.856398 0.425685
0.221808 0.856398 0.425685
0.486065 0.879976 0.442325
0.910409 0.925989 0.373016
0.944568 0.928196 0.362767
0.944568 0.928196 0.362767
0.944568 0.928196 0.362767
0.944568 0.928196 0.362767
0.221808 0.856398 0.425685
0.221808 0.856398 0.425685
0.221808 0.856398 0.425685
0.486065 0.879976 0.442325
0.910409 0.925989 0.373016
0.944568 0.928196 0.362767
0.944568 0.928196 0.362767
0.944568 0.928196 0.362767
0.944568 0.928196 0.362767
0.221808 0.856398 0.425685
0.221808 0.856398 0.425685
0.221808 0.856398 0.425685
0.486065 0.879976 0.442325
0.910409 0.925989 0.373016
0.944568 0.928196 0.362767
0.944568 0.928196 0.362767
0.944568 0.928196 0.362767
0.944568 0.928196 0.362767
0.020673 0.027847 0.807181
0.020673 0.027847 0.807181
0.020673 0.027847 0.807181
0.321164 0.031895 0.810909
0.811710 0.038625 0.817126
0.844056 0.038904 0.817359
0.844056 0.038904 0.817359
0.844056 0.038904 0.817359
0.844056 0.038904 0.817359
0.020673 0.027847 0.807181
0.020673 0.027847 0.807181
0.020673 0.027847 0.807181
0.321164 0.031895 0.810909
0.811710 0.038625 0.817126
0.844056 0.038904 0.817359
0.844056 0.038904 0.817359
0.844056 0.038904 0.817359
0.844056 0.038904 0.817359
0.020673 0.027847 0.807181
0.020673 0.027847 0.807181
0.020673 0.027847 0.807181
0.321164 0.031895 0.810909
0.811710 0.038625 0.817126
0.844056 0.038904 0.817359
0.844056 0.038904 0.817359
0.844056 0.038904 0.817359
0.844056 0.038904 0.817359
0.040609 0.337767 0.821284
0.040609 0.337767 0.821284
0.040609 0.337767 0.821284
0.342003 0.343215 0.826511
0.837083 0.353967 0.836717
0.870214 0.355254 0.837286
0.870214 0.355254 0.837286
0.870214 0.355254 0.837286
0.870214 0.355254 0.837286
0.118277 0.864746 0.848646
0.118277 0.864746 0.848646
0.118277 0.864746 0.848646
0.427993 0.876219 0.854392
0.912817 0.896967 0.863002
0.946444 0.898339 0.863189
0.946444 0.898339 0.863189
0.946444 0.898339 0.863189
0.946444 0.898339 0.863189
0.152933 0.893531 0.845031
0.152933 0.893531 0.845031
0.152933 0.893531 0.845031
0.453059 0.907681 0.853810
0.919419 0.933161 0.864648
0.952964 0.934676 0.863787
0.952964 0.934676 0.863787
0.952964 0.934676 0.863787
0.952964 0.934676 0.863787
0.152933 0.893531 0.845031
0.152933 0.893531 0.845031
0.152933 0.893531 0.845031
0.453059 0.907681 0.853810
0.919419 0.933161 0.864648
0.952964 0.934676 0.863787
0.952964 0.934676 0.863787
0.952964 0.934676 0.863787
0.952964 0.934676 0.863787
0.152933 0.893531 0.845031
0.152933 0.893531 0.845031
0.152933 0.893531 0.845031
0.453059 0.907681 0.853810
0.919419 0.933161 0.864648
0.952964 0.934676 0.863787
0.952964 0.934676 0.863787
0.952964 0.934676 0.863787
0.952964 0.934676 0.863787
0.152933 0.893531 0.845031
0.152933 0.893531 0.845031
0.152933 0.893531 0.845031
0.453059 0.907681 0.853810
0.919419 0.933161 0.864648
0.952964 0.934676 0.863787
0.952964 0.934676 0.863787
0.952964 0.934676 0.863787
0.952964 0.934676 0.863787
0.020802 0.027876 0.838891
0.020802 0.027876 0.838891
0.020802 0.027876 0.838891
0.321307 0.031944 0.842640
0.811928 0.038718 0.848904
0.844276 0.039002 0.849143
0.844276 0.039002 0.849143
0.844276 0.039002 0.849143
0.844276 0.039002 0.849143
0.020802 0.027876 0.838891
0.020802 0.027876 0.838891
0.020802 0.027876 0.838891
0.321307 0.031944 0.842640
0.811928 0.038718 0.848904
0.844276 0.039002 0.849143
0.844276 0.039002 0.849143
0.844276 0.039002 0.849143
0.844276 0.039002 0.849143
0.020802 0.027876 0.838891
0.020802 0.027876 0.838891
0.020802 0.027876 0.838891
0.321307 0.031944 0.842640
0.811928 0.038718 0.848904
0.844276 0.039002 0.849143
0.844276 0.039002 0.849143
0.844276 0.039002 0.849143
0.844276 0.039002 0.849143
0.040790 0.337875 0.853078
0.040790 0.337875 0.853078
0.040790 0.337875 0.853078
0.342206 0.343357 0.858343
0.837557 0.354396 0.868619
0.870718 0.355704 0.869167
0.870718 0.355704 0.869167
0.870718 0.355704 0.869167
0.870718 0.355704 0.869167
0.107294 0.868414 0.883335
0.107294 0.868414 0.883335
0.107294 0.868414 0.883335
0.419111 0.879359 0.888254
0.913471 0.897433 0.894767
0.947099 0.898806 0.894952
0.947099 0.898806 0.894952
0.947099 0.898806 0.894952
0.947099 0.898806 0.894952
0.130572 0.900499 0.880621
0.130572 0.900499 0.880621
0.130572 0.900499 0.880621
0.439673 0.912282 0.886552
0.920112 0.933670 0.895915
0.953626 0.935146 0.895546
0.953626 0.935146 0.895546
0.953626 0.935146 0.895546
0.953626 0.935146 0.895546
0.130572 0.900499 0.880621
0.130572 0.900499 0.880621
0.130572 0.900499 0.880621
0.439673 0.912282 0.886552
0.920112 0.933670 0.895915
0.953626 0.935146 0.895546
0.953626 0.935146 0.895546
0.953626 0.935146 0.895546
0.953626 0.935146 0.895546
0.130572 0.900499 0.880621
0.130572 0.900499 0.880621
0.130572 0.900499 0.880621
0.439673 0.912282 0.886552
0.920112 0.933670 0.895915
0.953626 0.935146 0.895546
0.953626 0.935146 0.895546
0.953626 0.935146 0.895546
0.953626 0.935146 0.895546
0.130572 0.900499 0.880621
0.130572 0.900499 0.880621
0.130572 0.900499 0.880621
0.439673 0.912282 0.886552
0.920112 0.933670 0.895915
0.953626 0.935146 0.895546
0.953626 0.935146 0.895546
0.953626 0.935146 0.895546
0.953626 0.935146 0.895546
0.020802 0.027876 0.838891
0.020802 0.027876 0.838891
0.020802 0.027876 0.838891
0.321307 0.031944 0.842640
0.811928 0.038718 0.848904
0.844276 0.039002 0.849143
0.844276 0.039002 0.849143
0.844276 0.039002 0.849143
0.844276 0.039002 0.849143
0.020802 0.027876 0.838891
0.020802 0.027876 0.838891
0.020802 0.027876 0.838891
0.321307 0.031944 0.842640
0.811928 0.038718 0.848904
0.844276 0.039002 0.849143
0.844276 0.039002 0.849143
0.844276 0.039002 0.849143
0.844276 0.039002 0.849143
0.020802 0.027876 0.838891
0.020802 0.027876 0.838891
0.020802 0.027876 0.838891
0.321307 0.031944 0.842640
0.811928 0.038718 0.848904
0.844276 0.039002 0.849143
0.844276 0.039002 0.849143
0.844276 0.039002 0.849143
0.844276 0.039002 0.849143
0.040790 0.337875 0.853078
0.040790 0.337875 0.853078
0.040790 0.337875 0.853078
0.342206 0.343357 0.858343
0.837557 0.354396 0.868619
0.870718 0.355704 0.869167
0.870718 0.355704 0.869167
0.870718 0.355704 0.869167
0.870718 0.355704 0.869167
0.107294 0.868414 0.883335
0.107294 0.868414 0.883335
0.107294 0.868414 0.883335
0.419111 0.879359 0.888254
0.913471 0.897433 0.894767
0.947099 0.898806 0.894952
0.947099 0.898806 0.894952
0.947099 0.898806 0.894952
0.947099 0.898806 0.894952
0.130572 0.900499 0.880621
0.130572 0.900499 0.880621
0.130572 0.900499 0.880621
0.439673 0.912282 0.886552
0.920112 0.933670 0.895915
0.953626 0.935146 0.895546
0.953626 0.935146 0.895546
0.953626 0.935146 0.895546
0.953626 0.935146 0.895546
0.130572 0.900499 0.880621
0.130572 0.900499 0.880621
0.130572 0.900499 0.880621
0.439673 0.912282 0.886552
0.920112 0.933670 0.895915
0.953626 0.935146 0.895546
0.953626 0.935146 0.895546
0.953626 0.935146 0.895546
0.953626 0.935146 0.895546
0.130572 0.900499 0.880621
0.130572 0.900499 0.880621
0.130572 0.900499 0.880621
0.439673 0.912282 0.886552
0.920112 0.933670 0.895915
0.953626 0.935146 0.895546
0.953626 0.935146 0.895546
0.953626 0.935146 0.895546
0.953626 0.935146 0.895546
0.130572 0.900499 0.880621
0.130572 0.900499 0.880621
0.130572 0.900499 0.880621
0.439673 0.912282 0.886552
0.920112 0.933670 0.895915
0.953626 0.935146 0.895546
0.953626 0.935146 0.895546
0.953626 0.935146 0.895546
0.953626 0.935146 0.895546
0.020802 0.027876 0.838891
0.020802 0.027876 0.838891
0.020802 0.027876 0.838891
0.321307 0.031944 0.842640
0.811928 0.038718 0.848904
0.844276 0.039002 0.849143
0.844276 0.039002 0.849143
0.844276 0.039002 0.849143
0.844276 0.039002 0.849143
0.020802 0.027876 0.838891
0.020802 0.027876 0.838891
0.020802 0.027876 0.838891
0.321307 0.031944 0.842640
0.811928 0.038718 0.848904
0.844276 0.039002 0.849143
0.844276 0.039002 0.849143
0.844276 0.039002 0.849143
0.844276 0.039002 0.849143
0.020802 0.027876 0.838891
0.020802 0.027876 0.838891
0.020802 0.027876 0.838891
0.321307 0.031944 0.842640
0.811928 0.038718 0.848904
0.844276 0.039002 0.849143
0.844276 0.039002 0.849143
0.844276 0.039002 0.849143
0.844276 0.039002 0.849143
0.040790 0.337875 0.853078
0.040790 0.337875 0.853078
0.040790 0.337875 0.853078
0.342206 0.343357 0.858343
0.837557 0.354396 0.868619
0.870718 0.355704 0.869167
0.870718 0.355704 0.869167
0.870718 0.355704 0.869167
0.870718 0.355704 0.869167
0.107294 0.868414 0.883335
0.107294 0.868414 0.883335
0.107294 0.868414 0.883335
0.419111 0.879359 0.888254
0.913471 0.897433 0.894767
0.947099 0.898806 0.894952
0.947099 0.898806 0.894952
0.947099 0.898806 0.894952
0.947099 0.898806 0.894952
0.130572 0.900499 0.880621
0.130572 0.900499 0.880621
0.130572 0.900499 0.880621
0.439673 0.912282 0.886552
0.920112 0.933670 0.895915
0.953626 0.935146 0.895546
0.953626 0.935146 0.895546
0.953626 0.935146 0.895546
0.953626 0.935146 0.895546
0.130572 0.900499 0.880621
0.130572 0.900499 0.880621
0.130572 0.900499 0.880621
0.439673 0.912282 0.886552
0.920112 0.933670 0.895915
0.953626 0.935146 0.895546
0.953626 0.935146 0.895546
0.953626 0.935146 0.895546
0.953626 0.935146 0.895546
0.130572 0.900499 0.880621
0.130572 0.900499 0.880621
0.130572 0.900499 0.880621
0.439673 0.912282 0.886552
0.920112 0.933670 0.895915
0.953626 0.935146 0.895546
0.953626 0.935146 0.895546
0.953626 0.935146 0.895546
0.953626 0.935146 0.895546
0.130572 0.900499 0.880621
0.130572 0.900499 0.880621
0.130572 0.900499 0.880621
0.439673 0.912282 0.886552
0.920112 0.933670 0.895915
0.953626 0.935146 0.895546
0.953626 0.935146 0.895546
0.953626 0.935146 0.895546
0.953626 0.935146 0.895546
0.020802 0.027876 0.838891
0.020802 0.027876 0.838891
0.020802 0.027876 0.838891
0.321307 0.031944 0.842640
0.811928 0.038718 0.848904
0.844276 0.039002 0.849143
0.844276 0.039002 0.849143
0.844276 0.039002 0.849143
0.844276 0.039002 0.849143
0.020802 0.027876 0.838891
0.020802 0.027876 0.838891
0.020802 0.027876 0.838891
0.321307 0.031944 0.842640
0.811928 0.038718 0.848904
0.844276 0.039002 0.849143
0.844276 0.039002 0.849143
0.844276 0.039002 0.849143
0.844276 0.039002 0.849143
0.020802 0.027876 0.838891
0.020802 0.027876 0.838891
0.020802 0.027876 0.838891
0.321307 0.031944 0.842640
0.811928 0.038718 0.848904
0.844276 0.039002 0.849143
0.844276 0.039002 0.849143
0.844276 0.039002 0.849143
0.844276 0.039002 0.849143
0.040790 0.337875 0.853078
0.040790 0.337875 0.853078
0.040790 0.337875 0.853078
0.342206 0.343357 0.858343
0.837557 0.354396 0.868619
0.870718 0.355704 0.869167
0.870718 0.355704 0.869167
0.870718 0.355704 0.869167
0.870718 0.355704 0.869167
0.107294 0.868414 0.883335
0.107294 0.868414 0.883335
0.107294 0.868414 0.883335
0.419111 0.879359 0.888254
0.913471 0.897433 0.894767
0.947099 0.898806 0.894952
0.947099 0.898806 0.894952
0.947099 0.898806 0.894952
0.947099 0.898806 0.894952
0.130572 0.900499 0.880621
0.130572 0.900499 0.880621
0.130572 0.900499 0.880621
0.439673 0.912282 0.886552
0.920112 0.933670 0.895915
0.953626 0.935146 0.895546
0.953626 0.935146 0.895546
0.953626 0.935146 0.895546
0.953626 0.935146 0.895546
0.130572 0.900499 0.880621
0.130572 0.900499 0.880621
0.130572 0.900499 0.880621
0.439673 0.912282 0.886552
0.920112 0.933670 0.895915
0.953626 0.935146 0.895546
0.953626 0.935146 0.895546
0.953626 0.935146 0.895546
0.953626 0.935146 0.895546
0.130572 0.900499 0.880621
0.130572 0.900499 0.880621
0.130572 0.900499 0.880621
0.439673 0.912282 0.886552
0.920112 0.933670 0.895915
0.953626 0.935146 0.895546
0.953626 0.935146 0.895546
0.953626 0.935146 0.895546
0.953626 0.935146 0.895546
0.130572 0.900499 0.880621
0.130572 0.900499 0.880621
0.130572 0.900499 0.880621
0.439673 0.912282 0.886552
0.920112 0.933670 0.895915
0.953626 0.935146 0.895546
0.953626 0.935146 0.895546
0.953626 0.935146 0.895546
0.953626 0.935146 0.895546
