luts/botw-vista-vlog.cube
TITLE "BotW Vista - VLog Input"
LUT_3D_SIZE 5
DOMAIN_MIN 0.0 0.0 0.0
DOMAIN_MAX 1.0 1.0 1.0
0.016118 0.024918 0.042518
0.016118 0.024918 0.042518
0.805681 0.034674 0.043289
0.837993 0.034878 0.042984
0.837993 0.034878 0.042984
0.016118 0.024918 0.042518
0.016118 0.024918 0.042518
0.805681 0.034674 0.043289
0.837993 0.034878 0.042984
0.837993 0.034878 0.042984
0.200832 0.814331 0.189072
0.200832 0.814331 0.189072
0.900088 0.887125 0.099966
0.933690 0.888490 0.100949
0.933690 0.888490 0.100949
0.212650 0.848811 0.197291
0.212650 0.848811 0.197291
0.905577 0.922155 0.118653
0.940131 0.924806 0.104258
0.940131 0.924806 0.104258
0.212650 0.848811 0.197291
0.212650 0.848811 0.197291
0.905577 0.922155 0.118653
0.940131 0.924806 0.104258
0.940131 0.924806 0.104258
0.016118 0.024918 0.042518
0.016118 0.024918 0.042518
0.805681 0.034674 0.043289
0.837993 0.034878 0.042984
0.837993 0.034878 0.042984
0.016118 0.024918 0.042518
0.016118 0.024918 0.042518
0.805681 0.034674 0.043289
0.837993 0.034878 0.042984
0.837993 0.034878 0.042984
0.200832 0.814331 0.189072
0.200832 0.814331 0.189072
0.900088 0.887125 0.099966
0.933690 0.888490 0.100949
0.933690 0.888490 0.100949
0.212650 0.848811 0.197291
0.212650 0.848811 0.197291
0.905577 0.922155 0.118653
0.940131 0.924806 0.104258
0.940131 0.924806 0.104258
0.212650 0.848811 0.197291
0.212650 0.848811 0.197291
0.905577 0.922155 0.118653
0.940131 0.924806 0.104258
0.940131 0.924806 0.104258
0.020673 0.027847 0.807181
0.020673 0.027847 0.807181
0.811710 0.038625 0.817126
0.844056 0.038904 0.817359
0.844056 0.038904 0.817359
0.020673 0.027847 0.807181
0.020673 0.027847 0.807181
0.811710 0.038625 0.817126
0.844056 0.038904 0.817359
0.844056 0.038904 0.817359
0.118277 0.864746 0.848646
0.118277 0.864746 0.848646
0.912817 0.896967 0.863002
0.946444 0.898339 0.863189
0.946444 0.898339 0.863189
0.152933 0.893531 0.845031
0.152933 0.893531 0.845031
0.919419 0.933161 0.864648
0.952964 0.934676 0.863787
0.952964 0.934676 0.863787
0.152933 0.893531 0.845031
0.152933 0.893531 0.845031
0.919419 0.933161 0.864648
0.952964 0.934676 0.863787
0.952964 0.934676 0.863787
0.020802 0.027876 0.838891
0.020802 0.027876 0.838891
0.811928 0.038718 0.848904
0.844276 0.039002 0.849143
0.844276 0.039002 0.849143
0.020802 0.027876 0.838891
0.020802 0.027876 0.838891
0.811928 0.038718 0.848904
0.844276 0.039002 0.849143
0.844276 0.039002 0.849143
0.107294 0.868414 0.883335
0.107294 0.868414 0.883335
0.913471 0.897433 0.894767
0.947099 0.898806 0.894952
0.947099 0.898806 0.894952
0.130572 0.900499 0.880621
0.130572 0.900499 0.880621
0.920112 0.933670 0.895915
0.953626 0.935146 0.895546
0.953626 0.935146 0.895546
0.130572 0.900499 0.880621
0.130572 0.900499 0.880621
0.920112 0.933670 0.895915
0.953626 0.935146 0.895546
0.953626 0.935146 0.895546
0.020802 0.027876 0.838891
0.020802 0.027876 0.838891
0.811928 0.038718 0.848904
0.844276 0.039002 0.849143
0.844276 0.039002 0.849143
0.020802 0.027876 0.838891
0.020802 0.027876 0.838891
0.811928 0.038718 0.848904
0.844276 0.039002 0.849143
0.844276 0.039002 0.849143
0.107294 0.868414 0.883335
0.107294 0.868414 0.883335
0.913471 0.897433 0.894767
0.947099 0.898806 0.894952
0.947099 0.898806 0.894952
0.130572 0.900499 0.880621
0.130572 0.900499 0.880621
0.920112 0.933670 0.895915
0.953626 0.935146 0.895546
0.953626 0.935146 0.895546
0.130572 0.900499 0.880621
0.130572 0.900499 0.880621
0.920112 0.933670 0.895915
0.953626 0.935146 0.895546
0.953626 0.935146 0.895546
